src/lib/packages/icons/src/assets/filled/trash-minus.svg

<svg width="24" height="24" viewBox="0 0 24 24" fill="none" xmlns="http://www.w3.org/2000/svg">
<path d="M18.56 7.75H5.44C5.267 7.75 5.12899 7.89701 5.14099 8.07001L5.81 18.2C5.92 19.78 6.75 21 8.81 21H15.19C17.25 21 18.08 19.78 18.19 18.2L18.859 8.07001C18.87 7.89701 18.733 7.75 18.56 7.75ZM14.5 14.75H9.5C9.086 14.75 8.75 14.414 8.75 14C8.75 13.586 9.086 13.25 9.5 13.25H14.5C14.914 13.25 15.25 13.586 15.25 14C15.25 14.414 14.914 14.75 14.5 14.75ZM20.75 6C20.75 6.414 20.414 6.75 20 6.75H4C3.586 6.75 3.25 6.414 3.25 6C3.25 5.586 3.586 5.25 4 5.25H8.21399C8.30699 5.068 8.37899 4.862 8.45599 4.632L8.65799 4.02499C8.86199 3.41299 9.43499 3 10.081 3H13.919C14.565 3 15.138 3.41299 15.342 4.02499L15.544 4.632C15.621 4.862 15.693 5.068 15.786 5.25H20C20.414 5.25 20.75 5.586 20.75 6Z" fill="currentColor"/>
</svg>

<svg xmlns="http://www.w3.org/2000/svg" width="24" height="24" fill="none"><path fill="currentColor" d="M18.56 7.75H5.44a.3.3 0 0 0-.299.32L5.81 18.2c.11 1.58.94 2.8 3 2.8h6.38c2.06 0 2.89-1.22 3-2.8l.669-10.13a.3.3 0 0 0-.299-.32Zm-4.06 7h-5a.75.75 0 0 1 0-1.5h5a.75.75 0 0 1 0 1.5ZM20.75 6a.75.75 0 0 1-.75.75H4a.75.75 0 0 1 0-1.5h4.214a4.53 4.53 0 0 0 .242-.618l.202-.607A1.5 1.5 0 0 1 10.081 3h3.838a1.5 1.5 0 0 1 1.423 1.025l.202.607c.077.23.149.436.242.618H20a.75.75 0 0 1 .75.75Z"/></svg>
